src/assets/images/gift-icon.svg

<svg width="35" height="35" viewBox="0 0 35 35" fill="none" xmlns="http://www.w3.org/2000/svg">
<g clip-path="url(#clip0_118_12745)">
<path d="M2.91699 21.1455H16.4066V34.9997H5.46908C4.06908 34.9997 2.91699 33.8476 2.91699 32.4476V21.1455Z" fill="#0000FF"/>
<path d="M32.0833 21.1455V32.4476C32.0833 33.8476 30.9313 34.9997 29.5312 34.9997H18.5938V21.1455H32.0833Z" fill="#0000FF"/>
<path d="M0 12.7601V16.4059C0 17.8059 1.15208 18.958 2.55208 18.958H2.91667H16.4062V16.7705V10.208H2.55208C1.15208 10.208 0 11.3601 0 12.7601Z" fill="#0000FF"/>
<path d="M32.4479 10.208H18.5938V16.7705V18.958H32.0833H32.4479C33.8479 18.958 35 17.8059 35 16.4059V12.7601C35 11.3601 33.8479 10.208 32.4479 10.208Z" fill="#0000FF"/>
<path d="M17.4996 11.731C17.1817 11.731 16.8784 11.5925 16.6727 11.3519C16.4642 11.1112 16.3723 10.7919 16.4175 10.4769C16.9571 6.83103 19.8052 -0.0654297 26.7294 -0.0654297C30.6815 -0.0639714 32.0829 2.07103 32.0829 3.89978C32.0829 7.1504 27.5577 11.731 17.4996 11.731ZM26.7294 2.12353C21.5057 2.12353 19.5223 7.08915 18.8646 9.51145C22.9859 9.31895 25.5846 8.27624 27.0809 7.38811C29.1561 6.15582 29.8954 4.7777 29.8954 3.89832C29.8954 2.58874 28.2607 2.12353 26.7294 2.12353Z" fill="#0000FF"/>
<path d="M17.5013 11.7305C7.44318 11.7305 2.91797 7.14992 2.91797 3.8993C2.91797 2.07055 4.32089 -0.0644531 8.27297 -0.0644531C15.1957 -0.0644531 18.0438 6.83201 18.5834 10.4778C18.6286 10.7928 18.5367 11.1122 18.3282 11.3528C18.1226 11.592 17.8192 11.7305 17.5013 11.7305ZM8.27297 2.12305C6.74172 2.12305 5.10547 2.58971 5.10547 3.8993C5.10547 5.76159 8.36193 9.15513 16.1348 9.51242C15.4786 7.08867 13.4953 2.12305 8.27297 2.12305Z" fill="#0000FF"/>
</g>
<defs>
<clipPath id="clip0_118_12745">
<rect width="35" height="35" fill="white"/>
</clipPath>
</defs>
</svg>

<svg xmlns="http://www.w3.org/2000/svg" width="35" height="35" fill="none" viewBox="0 0 35 35"><g fill="#00f" clip-path="url(#a)"><path d="M2.917 21.146h13.49V35H5.469a2.564 2.564 0 0 1-2.552-2.552zm29.166 0v11.302c0 1.4-1.152 2.552-2.552 2.552H18.594V21.145zM0 12.76v3.646c0 1.4 1.152 2.552 2.552 2.552h13.855v-8.75H2.551A2.564 2.564 0 0 0 0 12.76m32.448-2.552H18.594v8.75h13.854c1.4 0 2.552-1.152 2.552-2.552V12.76c0-1.4-1.152-2.552-2.552-2.552"/><path d="M17.5 11.731a1.097 1.097 0 0 1-1.082-1.254C16.958 6.83 19.805-.065 26.729-.065c3.953.001 5.354 2.136 5.354 3.965 0 3.25-4.525 7.831-14.583 7.831m9.23-9.607c-5.224 0-7.208 4.965-7.865 7.387 4.12-.192 6.72-1.235 8.216-2.123 2.075-1.232 2.814-2.61 2.814-3.49 0-1.31-1.634-1.774-3.166-1.774"/><path d="M17.501 11.73C7.443 11.73 2.918 7.15 2.918 3.9c0-1.83 1.403-3.964 5.355-3.964 6.923 0 9.77 6.896 10.31 10.542a1.097 1.097 0 0 1-1.082 1.252M8.273 2.124c-1.531 0-3.168.467-3.168 1.776 0 1.863 3.257 5.256 11.03 5.613-.656-2.423-2.64-7.389-7.862-7.389"/></g><defs><clipPath id="a"><path fill="#fff" d="M0 0h35v35H0z"/></clipPath></defs></svg>
